icon/pk/tiktok.svg

<svg viewBox="0 0 48 48" fill="none" xmlns="http://www.w3.org/2000/svg" height="1em" width="1em">
  <path d="M21.358 19.1399C15.4694 18.8558 11.3762 20.9553 9.07838 25.4384C5.63169 32.163 8.48026 43.1666 19.9788 43.1666C31.4774 43.1666 31.81 32.0554 31.81 30.8914C31.81 30.1154 31.81 25.7764 31.81 17.8746C34.2694 19.4323 36.343 20.37 38.0308 20.6877C39.7186 21.0053 40.7915 21.1461 41.2497 21.11V14.6343C39.6886 14.4461 38.3386 14.0873 37.1997 13.5581C35.4913 12.7643 32.1037 10.5611 32.1037 7.33208C32.106 7.34787 32.106 6.51493 32.1037 4.83325H24.9857C24.9645 20.6493 24.9645 29.3353 24.9857 30.8914C25.0175 33.2255 23.2068 36.4905 19.5355 36.4905C15.8642 36.4905 14.0535 33.2281 14.0535 31.1239C14.0535 29.8357 14.496 27.9685 16.3251 26.5858C17.4098 25.7658 18.9153 25.4384 21.358 25.4384C21.358 24.6828 21.358 22.5833 21.358 19.1399Z" fill="#2F88FF" stroke="black" stroke-width="3.83333" stroke-linejoin="round"/>
</svg>

<svg width="48" height="48" fill="none" xmlns="http://www.w3.org/2000/svg"><path d="M21.358 19.14c-5.889-.284-9.982 1.815-12.28 6.298-3.446 6.725-.598 17.729 10.9 17.729 11.5 0 11.832-11.112 11.832-12.276V17.875c2.46 1.557 4.533 2.495 6.22 2.813 1.689.317 2.761.458 3.22.422v-6.476c-1.561-.188-2.911-.547-4.05-1.076-1.709-.794-5.096-2.997-5.096-6.226.002.016.002-.817 0-2.499h-7.118c-.021 15.816-.021 24.502 0 26.058.031 2.334-1.78 5.6-5.45 5.6-3.672 0-5.483-3.263-5.483-5.367 0-1.288.443-3.155 2.272-4.538 1.085-.82 2.59-1.148 5.033-1.148V19.14Z" fill="#2F88FF" stroke="#000" stroke-width="3.833" stroke-linejoin="round"/></svg>
